public/library/celoscan-text-dark.svg

<svg width="613" height="140" viewBox="0 0 613 140" fill="none" xmlns="http://www.w3.org/2000/svg">
<path fill-rule="evenodd" clip-rule="evenodd" d="M139.558 0H2.3418V138.288H139.556V90.0157H116.784C108.934 107.626 91.2658 119.891 71.0459 119.891C43.1707 119.891 20.5964 96.9441 20.5964 69.0469C20.5964 41.1504 43.1707 18.3999 71.0459 18.3999C91.6578 18.3999 109.326 31.0624 117.179 49.0645H139.558V0ZM272.442 90.013C264.395 107.622 246.923 119.887 226.51 119.888C199.418 119.888 177.236 98.126 176.255 71.022H295.214V0H157.997V138.284H295.214V90.013H272.442ZM274.201 54.0093H178.405C184.49 31.2587 204.707 18.4001 226.498 18.4001C248.288 18.4001 267.135 30.4659 274.201 54.0093ZM591.518 69.0442C591.518 97.1374 569.138 119.888 541.263 119.888C513.584 119.888 491.009 96.9408 491.009 69.0442C491.009 41.1476 513.389 18.3971 541.263 18.3971C569.138 18.3971 591.518 40.9515 591.518 69.0442ZM609.967 0H472.752V138.288H609.967V0ZM432.825 90.013H455.596V138.284H313.473V0H336.637V69.0442C336.637 99.9078 359.409 119.691 386.497 119.691C407.501 119.691 425.953 108.214 432.825 90.013Z" fill="white"/>
</svg>

<svg xmlns="http://www.w3.org/2000/svg" width="613" height="140" fill="none" viewBox="0 0 613 140"><path fill="#fff" fill-rule="evenodd" d="M139.558 0H2.342v138.288h137.214V90.016h-22.772c-7.85 17.61-25.518 29.875-45.738 29.875-27.875 0-50.45-22.947-50.45-50.844S43.171 18.4 71.046 18.4c20.612 0 38.28 12.662 46.133 30.665h22.379zm132.884 90.013c-8.047 17.609-25.519 29.874-45.932 29.875-27.092 0-49.274-21.762-50.255-48.866h118.959V0H157.997v138.284h137.217V90.013zm1.759-36.004h-95.796C184.49 31.26 204.707 18.4 226.498 18.4c21.79 0 40.637 12.066 47.703 35.61m317.317 15.035c0 28.093-22.38 50.844-50.255 50.844-27.679 0-50.254-22.947-50.254-50.844 0-27.896 22.38-50.647 50.254-50.647 27.875 0 50.255 22.555 50.255 50.647M609.967 0H472.752v138.288h137.215zM432.825 90.013h22.771v48.271H313.473V0h23.164v69.044c0 30.864 22.772 50.647 49.86 50.647 21.004 0 39.456-11.477 46.328-29.678" clip-rule="evenodd"/></svg>
